source/img/year/number-icon_year-3.svg

<svg width="186" height="212" xmlns="http://www.w3.org/2000/svg" viewBox="0 0 164 217" ><path d="M96.738 209.634c-34.844 0-62.757-11.615-83.738-34.844l34.282-34.282c14.612 14.987 30.254 22.48 46.927 22.48 7.681 0 13.769-1.78 18.265-5.339 4.683-3.747 7.025-8.805 7.025-15.174s-2.81-11.334-8.43-14.893c-5.62-3.559-13.488-5.339-23.604-5.339H64.423l-7.868-28.381 45.241-40.745H26.488V9h142.186v39.059l-46.927 40.183c33.907 7.493 50.861 26.133 50.861 55.919 0 19.67-7.119 35.5-21.356 47.489-14.05 11.989-32.221 17.984-54.514 17.984z"/></svg>

<svg width="186" height="212" viewBox="0 0 186 212" xmlns="http://www.w3.org/2000/svg">
<path d="M96.738 209.634C61.894 209.634 33.9813 198.019 13 174.79L47.282 140.508C61.894 155.495 77.5363 162.988 94.209 162.988C101.89 162.988 107.978 161.208 112.474 157.649C117.157 153.902 119.499 148.844 119.499 142.475C119.499 136.106 116.689 131.141 111.069 127.582C105.449 124.023 97.581 122.243 87.465 122.243H64.423L56.555 93.862L101.796 53.117H26.488V9H168.674V48.059L121.747 88.242C155.654 95.7353 172.608 114.375 172.608 144.161C172.608 163.831 165.489 179.661 151.252 191.65C137.202 203.639 119.031 209.634 96.738 209.634Z"/>
</svg>
